client/public/assets/icons/custom/custom102.svg

<?xml version="1.0" encoding="UTF-8" standalone="no"?>
<svg width="100px" height="100px" viewBox="0 0 100 100" version="1.1" xmlns="http://www.w3.org/2000/svg" xmlns:xlink="http://www.w3.org/1999/xlink">
    <g stroke="none" stroke-width="1" fill="none" fill-rule="evenodd">
        <path d="M31.1785714,60.7 L22.4285714,60.7 C22.1204439,60.6942701 21.8227601,60.8116907 21.6015169,61.0262295 C21.3802738,61.2407683 21.2537514,61.5346992 21.25,61.8428571 L21.25,79.5714286 C21.2499467,79.882071 21.3747968,80.1796894 21.59646,80.3973225 C21.8181233,80.6149555 22.1179822,80.7343241 22.4285714,80.7285714 L31.1785714,80.7285714 C31.4891606,80.7343241 31.7890196,80.6149555 32.0106828,80.3973225 C32.2323461,80.1796894 32.3571961,79.882071 32.3571429,79.5714286 L32.3571429,61.8357143 C32.3593138,61.5256918 32.2346499,61.2282579 32.0120792,61.0124317 C31.7895085,60.7966056 31.4883804,60.6811503 31.1785714,60.6928571 L31.1785714,60.7 Z M47.3214286,55.2357143 L38.5714286,55.2357143 C37.9461966,55.2433274 37.4401043,55.7462567 37.4285714,56.3714286 L37.4285714,79.6214286 C37.4323229,79.9295866 37.5588452,80.2235174 37.7800884,80.4380562 C38.0013315,80.652595 38.2990153,80.7700156 38.6071429,80.7642857 L47.3214286,80.7642857 C47.6295561,80.7700156 47.9272399,80.652595 48.1484831,80.4380562 C48.3697262,80.2235174 48.4962486,79.9295866 48.5,79.6214286 L48.5,56.3714286 C48.4962486,56.0632706 48.3697262,55.7693397 48.1484831,55.554801 C47.9272399,55.3402622 47.6295561,55.2228415 47.3214286,55.2285714 L47.3214286,55.2357143 Z M63.4285714,35.1571429 L54.6785714,35.1571429 C54.3704439,35.151413 54.0727601,35.2688336 53.8515169,35.4833724 C53.6302738,35.6979112 53.5037514,35.991842 53.5,36.3 L53.5,79.6214286 C53.5037514,79.9295866 53.6302738,80.2235174 53.8515169,80.4380562 C54.0727601,80.652595 54.3704439,80.7700156 54.6785714,80.7642857 L63.4285714,80.7642857 C63.736699,80.7700156 64.0343828,80.652595 64.2556259,80.4380562 C64.476869,80.2235174 64.6033914,79.9295866 64.6071429,79.6214286 L64.6071429,36.3 C64.6156708,35.9880605 64.4930038,35.6868389 64.2689787,35.4696023 C64.0449535,35.2523658 63.7401009,35.1390231 63.4285714,35.1571429 L63.4285714,35.1571429 Z M79.5714286,21.2285714 L70.8214286,21.2285714 C70.513301,21.2228415 70.2156172,21.3402622 69.9943741,21.554801 C69.773131,21.7693397 69.6466086,22.0632706 69.6428571,22.3714286 L69.6428571,79.6214286 C69.6466086,79.9295866 69.773131,80.2235174 69.9943741,80.4380562 C70.2156172,80.652595 70.513301,80.7700156 70.8214286,80.7642857 L79.5714286,80.7642857 C79.8795561,80.7700156 80.1772399,80.652595 80.3984831,80.4380562 C80.6197262,80.2235174 80.7462486,79.9295866 80.75,79.6214286 L80.75,22.3714286 C80.7462486,22.0632706 80.6197262,21.7693397 80.3984831,21.554801 C80.1772399,21.3402622 79.8795561,21.2228415 79.5714286,21.2285714 L79.5714286,21.2285714 Z" id="Shape" fill="#FFFFFF"></path>
    </g>
</svg>

<?xml version="1.0"?><svg width="100" height="100" viewBox="0 0 100 100" xmlns="http://www.w3.org/2000/svg"><path d="m31.2 60.7h-8.8c-0.3 0-0.6 0.1-0.8 0.3-0.2 0.2-0.3 0.5-0.3 0.8v17.8c0 0.3 0.1 0.6 0.3 0.8 0.2 0.2 0.5 0.3 0.8 0.3h8.8c0.3 0 0.6-0.1 0.8-0.3 0.2-0.2 0.4-0.5 0.4-0.8v-17.8c0-0.3-0.2-0.6-0.4-0.8-0.2-0.2-0.5-0.3-0.8-0.3v0z m16.1-5.5h-8.7c-0.7 0-1.2 0.5-1.2 1.2v23.2c0 0.3 0.2 0.6 0.4 0.8 0.2 0.3 0.5 0.4 0.8 0.4h8.7c0.3 0 0.6-0.1 0.8-0.4 0.3-0.2 0.4-0.5 0.4-0.8v-23.2c0-0.3-0.1-0.6-0.4-0.8-0.2-0.3-0.5-0.4-0.8-0.4v0z m16.1-20h-8.7c-0.3 0-0.6 0.1-0.8 0.3-0.3 0.2-0.4 0.5-0.4 0.8v43.3c0 0.3 0.1 0.6 0.4 0.8 0.2 0.3 0.5 0.4 0.8 0.4h8.7c0.3 0 0.6-0.1 0.9-0.4 0.2-0.2 0.3-0.5 0.3-0.8v-43.3c0-0.3-0.1-0.6-0.3-0.8-0.3-0.2-0.6-0.4-0.9-0.3z m16.2-14h-8.8c-0.3 0-0.6 0.1-0.8 0.4-0.2 0.2-0.4 0.5-0.4 0.8v57.2c0 0.3 0.2 0.6 0.4 0.8 0.2 0.3 0.5 0.4 0.8 0.4h8.8c0.3 0 0.6-0.1 0.8-0.4 0.2-0.2 0.3-0.5 0.4-0.8v-57.2c-0.1-0.3-0.2-0.6-0.4-0.8-0.2-0.3-0.5-0.4-0.8-0.4z" fill="#fff"></path></svg>
